src/rounded/icons/fi-rr-time-quarter-to.svg

<svg id="Layer_1" height="512" viewBox="0 0 24 24" width="512" xmlns="http://www.w3.org/2000/svg" data-name="Layer 1"><path d="m24 12a12 12 0 0 1 -24 0 1 1 0 0 1 2 0 10 10 0 1 0 10-10 1 1 0 0 1 0-2 12.013 12.013 0 0 1 12 12zm-13.723-1h-2.277a1 1 0 0 0 0 2h2.277a1.994 1.994 0 1 0 2.723-2.723v-3.277a1 1 0 0 0 -2 0v3.277a2 2 0 0 0 -.723.723zm-8.45-2.216a1 1 0 1 0 -1-1 1 1 0 0 0 1 1zm2.394-3.577a1 1 0 1 0 -1-1 1 1 0 0 0 1 1zm3.558-2.366a1 1 0 1 0 -1-1 1 1 0 0 0 1 1z"/></svg>

<svg id="Layer_1" data-name="Layer 1" xmlns="http://www.w3.org/2000/svg" viewBox="0 0 24 24"><path d="M24,12A12,12,0,0,1,0,12a1,1,0,0,1,2,0A10,10,0,1,0,12,2a1,1,0,0,1,0-2A12.013,12.013,0,0,1,24,12ZM10.277,11H8a1,1,0,0,0,0,2h2.277A1.994,1.994,0,1,0,13,10.277V7a1,1,0,0,0-2,0v3.277A2,2,0,0,0,10.277,11ZM1.827,8.784a1,1,0,1,0-1-1A1,1,0,0,0,1.827,8.784ZM4.221,5.207a1,1,0,1,0-1-1A1,1,0,0,0,4.221,5.207ZM7.779,2.841a1,1,0,1,0-1-1A1,1,0,0,0,7.779,2.841Z"/></svg>
